icons/penis_alt.svg

<svg width="48" height="48" viewBox="0 0 48 48" fill="none" xmlns="http://www.w3.org/2000/svg">
<path fill-rule="evenodd" clip-rule="evenodd" d="M8.999 6H10.9994C10.9994 6 7.88089 21.5064 7.99914 25.0038C8.14785 29.4018 12 42 12 42H9.99957C9.99957 42 6.14682 29.3389 6.00245 25.0693C5.9007 22.06 8.999 6 8.999 6Z" fill="black"/>
<path fill-rule="evenodd" clip-rule="evenodd" d="M39.001 6H37.0006C37.0006 6 40.1191 21.5064 40.0009 25.0038C39.8521 29.4018 36 42 36 42H38.0004C38.0004 42 41.8532 29.3389 41.9975 25.0693C42.0993 22.06 39.001 6 39.001 6Z" fill="black"/>
<path fill-rule="evenodd" clip-rule="evenodd" d="M23 23V33C23 33.5523 23.4477 34 24 34C24.5523 34 25 33.5523 25 33V23H27V33C27 34.6569 25.6569 36 24 36C22.3431 36 21 34.6569 21 33V23H23Z" fill="black"/>
<path fill-rule="evenodd" clip-rule="evenodd" d="M20 25V26C20 26.5523 20.4477 27 21 27V29C19.3431 29 18 27.6569 18 26V25H20Z" fill="black"/>
<path fill-rule="evenodd" clip-rule="evenodd" d="M28 26V25H30V26C30 27.6569 28.6569 29 27 29V27C27.5523 27 28 26.5523 28 26Z" fill="black"/>
<path fill-rule="evenodd" clip-rule="evenodd" d="M23 42V35H25V42H23Z" fill="black"/>
</svg>

<svg
  xmlns="http://www.w3.org/2000/svg"
  width="24"
  height="24"
  viewBox="0 0 24 24"
  fill="none"
  stroke="currentColor"
  stroke-width="2"
  stroke-linecap="round"
  stroke-linejoin="round"
>
  <path
    fill-rule="evenodd"
    d="M8.999 6h2S7.881 21.506 8 25.004C8.148 29.402 12 42 12 42h-2S6.147 29.339 6.002 25.07C5.901 22.06 9 6 9 6"
    clip-rule="evenodd"
  />
  <path
    fill-rule="evenodd"
    d="M39.001 6h-2s3.118 15.506 3 19.004C39.852 29.402 36 42 36 42h2s3.853-12.661 3.998-16.93C42.099 22.06 39 6 39 6"
    clip-rule="evenodd"
  />
  <path
    fill-rule="evenodd"
    d="M23 23v10a1 1 0 1 0 2 0V23h2v10a3 3 0 1 1-6 0V23z"
    clip-rule="evenodd"
  />
  <path
    fill-rule="evenodd"
    d="M20 25v1a1 1 0 0 0 1 1v2a3 3 0 0 1-3-3v-1z"
    clip-rule="evenodd"
  />
  <path
    fill-rule="evenodd"
    d="M28 26v-1h2v1a3 3 0 0 1-3 3v-2a1 1 0 0 0 1-1"
    clip-rule="evenodd"
  />
  <path fill-rule="evenodd" d="M23 42v-7h2v7z" clip-rule="evenodd" />
</svg>
